build/img/icon/advantages-5.svg

<svg xmlns="http://www.w3.org/2000/svg" width="512" height="512" fill="none"><g clip-path="url(#clip0)" fill="#2A47B6"><path d="M235.624 398.679c-11.937 0-22.812-7.046-27.706-17.95-2.561-5.707-11.095-5.771-13.685 0-4.893 10.904-15.768 17.95-27.705 17.95-9.674 0-9.674 15 0 15 13.482 0 26.056-6.013 34.547-15.982 8.492 9.97 21.066 15.982 34.548 15.982 9.675 0 9.675-15 .001-15zm-8.871-196.726a7.5 7.5 0 00.016-10.606 7.5 7.5 0 00-10.606-.016c-8.318 8.294-21.854 8.294-30.172 0a7.5 7.5 0 00-10.606.016 7.498 7.498 0 00.016 10.606c7.079 7.059 16.378 10.588 25.677 10.588 9.297 0 18.596-3.53 25.675-10.588z"/><path d="M438.266 399.456h-11.69v-8.543c28.964-10.196 49.788-37.816 49.788-70.223v-57.792a74.15 74.15 0 00-3.422-22.313 7.5 7.5 0 00-9.407-4.899 7.5 7.5 0 00-4.899 9.407 59.165 59.165 0 012.729 17.805v30.732a11.777 11.777 0 01-4.295-9.03c.299-15.605-12.746-28.593-28.245-28.62 0 0-37.708-.07-53.392.012-15.074.078-27.418 12.149-28.101 27.481-.182 4.139-1.627 7.801-5.028 10.354v-30.93c0-32.72 26.706-59.339 59.531-59.339 13.846 0 27.331 4.845 37.972 13.642a7.502 7.502 0 009.558-11.562c-13.324-11.014-30.204-17.08-47.53-17.08a74.232 74.232 0 00-32.552 7.479c-5.437-13.683-14.286-25.71-25.896-35.077-4.591-3.704-6.195-10.078-3.992-15.859a47.992 47.992 0 003.145-17.153c0-20.608-13.401-38.952-33.346-45.645-4.691-1.574-8.168-5.665-9.074-10.674C292.613 30.125 256.508 0 214.267 0h-26.381c-10.589 0-20.94 1.878-30.767 5.582a7.5 7.5 0 105.29 14.036C170.539 16.554 179.11 15 187.886 15h26.381c34.98 0 64.877 24.939 71.089 59.299 1.88 10.394 9.184 18.911 19.063 22.226 13.828 4.64 23.119 17.269 23.119 31.424 0 4.073-.728 8.047-2.162 11.812-4.522 11.869-1.07 25.08 8.59 32.874 10.297 8.308 17.963 19.141 22.329 31.476-17.618 13.609-28.992 34.892-28.992 58.787v24.666c-8.463 5.385-17.921 8.902-27.769 10.32-6.167-12.362-16.62-22.33-29.848-27.844.234-4.381-2.805-8.541-7.5-8.541h-15.87a7.499 7.499 0 00-6.619 3.98h-8.805v-14.095c33.386-12.165 57.291-44.227 57.291-81.768v-43.073c0-3.248-2.047-6.112-5.136-7.118-13.404-4.515-22.693-19.422-26.791-32.093-2.982-9.226-15.887-10.825-20.911-2.49-12.746 21.145-42.317 29.374-64.88 32.553-25.496 3.592-48.12 1.695-48.342 1.677-4.324-.388-8.155 3.137-8.155 7.471v43.073c0 37.542 23.905 69.603 57.291 81.768v14.095h-8.805a7.497 7.497 0 00-6.619-3.98h-15.869c-4.637 0-7.706 4.18-7.5 8.54-13.224 5.512-23.675 15.473-29.842 27.83-33.865-4.874-60.173-34.118-60.813-68.751-.407-22.044 9.206-42.632 26.375-56.483 9.661-7.794 13.113-21.005 8.59-32.873a33.057 33.057 0 01-2.162-11.813c0-14.171 9.286-26.804 23.106-31.434 9.885-3.312 17.195-11.83 19.078-22.23 2.231-12.33 7.7-23.938 15.816-33.568a7.5 7.5 0 00-.902-10.568 7.498 7.498 0 00-10.568.902c-9.802 11.631-16.409 25.658-19.106 40.563-.908 5.014-4.388 9.106-9.083 10.679-19.942 6.681-33.341 25.029-33.341 45.657a48.008 48.008 0 003.145 17.153c2.203 5.782.599 12.155-3.992 15.859-20.8 16.782-32.447 41.725-31.953 68.435.758 40.994 31.184 75.762 70.836 82.865a59.57 59.57 0 00-1.21 11.965V504.5a7.5 7.5 0 0015 0V324.227c0-15.643 8.135-29.646 21.026-37.425v51.568c-14.893 16.879-14.893 43.02 0 59.899V504.5a7.5 7.5 0 0015 0V395.289a7.499 7.499 0 00-2.237-5.343c-11.902-11.724-11.905-31.525 0-43.252a7.496 7.496 0 002.237-5.343V276.5h2.235c5.984 25.29 22.108 53.333 51.374 53.333 29.259 0 45.39-28.047 51.374-53.333h2.235v64.851c0 2.009.806 3.934 2.237 5.343 11.903 11.724 11.906 31.525 0 43.252a7.5 7.5 0 00-2.237 5.343V504.5a7.5 7.5 0 0015 0V398.27c14.893-16.878 14.893-43.021 0-59.899v-51.568c12.891 7.78 21.026 21.784 21.026 37.425V504.5a7.5 7.5 0 0015 0V324.227c0-4.082-.415-8.081-1.207-11.952a85.274 85.274 0 0022.798-7.519v15.934c0 33.24 21.904 61.454 52.033 70.984v7.782h-11.69c-25.879 0-46.933 21.054-46.933 46.933V504.5a7.5 7.5 0 0015 0v-36h14.359v36a7.5 7.5 0 0015 0V461a7.5 7.5 0 00-7.5-7.5h-21.859v-7.111c0-17.608 14.325-31.933 31.933-31.933h13.974c8.391 17.596 34.268 17.64 42.674 0h13.973c17.608 0 31.934 14.325 31.934 31.934v7.11H448.34a7.5 7.5 0 00-7.5 7.5v43.5a7.5 7.5 0 0015 0v-36h14.36v36a7.5 7.5 0 0015 0v-58.11c0-25.88-21.054-46.934-46.934-46.934zM128.969 169.617v-35.14c22.97.823 87.617-.283 115.34-36.215 8.244 19.831 21.565 29.232 28.874 33.104v38.25c0 39.697-32.296 71.993-71.993 71.993h-.229c-39.696 0-71.992-32.296-71.992-71.992zm72.107 145.216c-18.996 0-29.584-18.415-34.7-34.353h12.384a7.5 7.5 0 007.5-7.5v-17.62a88.204 88.204 0 0029.632 0v17.62a7.5 7.5 0 007.5 7.5h12.402c-4.438 13.9-14.417 34.353-34.718 34.353zm141.226 5.857v-10.408c11.481-3.257 19.934-13.788 20.021-26.278.396-7.391 6.042-12.974 13.187-13.011 15.63-.082 53.287-.012 53.287-.012 7.566.013 13.271 6.169 13.271 13.553 0 12.172 8.161 22.466 19.295 25.719v10.437c0 32.772-26.662 59.435-59.435 59.435h-.193c-32.771 0-59.433-26.663-59.433-59.435zm60.63 92.247c-4.741 0-8.597-3.856-8.597-8.597v-9.585a75.893 75.893 0 0017.241-.276v9.861c0 4.741-3.857 8.597-8.644 8.597z"/><path d="M422.665 348.137a7.501 7.501 0 00-10.592-10.622c-5.646 5.631-14.833 5.631-20.481 0A7.501 7.501 0 00381 348.137c5.744 5.727 13.288 8.59 20.832 8.59 7.545 0 15.089-2.863 20.833-8.59z"/></g><defs><clipPath id="clip0"><path fill="#fff" d="M0 0h512v512H0z"/></clipPath></defs></svg>

<?xml version="1.0" encoding="UTF-8"?> <svg xmlns="http://www.w3.org/2000/svg" width="512" height="512" viewBox="0 0 512 512" fill="none"> <g clip-path="url(#clip0)"> <path d="M235.624 398.679C223.687 398.679 212.812 391.633 207.918 380.729C205.357 375.022 196.823 374.958 194.233 380.729C189.34 391.633 178.465 398.679 166.528 398.679C156.854 398.679 156.854 413.679 166.528 413.679C180.01 413.679 192.584 407.666 201.075 397.697C209.567 407.667 222.141 413.679 235.623 413.679C245.298 413.679 245.298 398.679 235.624 398.679V398.679Z" fill="#2A47B6"></path> <path d="M226.753 201.953C229.687 199.028 229.693 194.28 226.769 191.347C223.844 188.413 219.095 188.407 216.163 191.331C207.845 199.625 194.309 199.625 185.991 191.331C183.057 188.407 178.308 188.413 175.385 191.347C172.46 194.28 172.467 199.029 175.401 201.953C182.48 209.012 191.779 212.541 201.078 212.541C210.375 212.541 219.674 209.011 226.753 201.953Z" fill="#2A47B6"></path> <path d="M438.266 399.456H426.576V390.913C455.54 380.717 476.364 353.097 476.364 320.69V262.898C476.364 255.299 475.213 247.792 472.942 240.585C471.697 236.634 467.484 234.44 463.535 235.686C459.584 236.931 457.391 241.143 458.636 245.093C460.447 250.84 461.365 256.83 461.365 262.898V293.63C458.76 291.478 457.09 288.231 457.07 284.6C457.369 268.995 444.324 256.007 428.825 255.98C428.825 255.98 391.117 255.91 375.433 255.992C360.359 256.07 348.015 268.141 347.332 283.473C347.15 287.612 345.705 291.274 342.304 293.827C342.304 283.517 342.304 273.207 342.304 262.897C342.304 230.177 369.01 203.558 401.835 203.558C415.681 203.558 429.166 208.403 439.807 217.2C443 219.839 447.727 219.39 450.367 216.198C453.006 213.005 452.557 208.278 449.365 205.638C436.041 194.624 419.161 188.558 401.835 188.558C390.169 188.558 379.124 191.251 369.283 196.037C363.846 182.354 354.997 170.327 343.387 160.96C338.796 157.256 337.192 150.882 339.395 145.101C341.482 139.624 342.54 133.853 342.54 127.948C342.54 107.34 329.139 88.996 309.194 82.303C304.503 80.729 301.026 76.638 300.12 71.629C292.613 30.125 256.508 0 214.267 0H187.886C177.297 0 166.946 1.878 157.119 5.582C153.243 7.043 151.285 11.369 152.746 15.245C154.207 19.121 158.536 21.078 162.409 19.618C170.539 16.554 179.11 15 187.886 15H214.267C249.247 15 279.144 39.939 285.356 74.299C287.236 84.693 294.54 93.21 304.419 96.525C318.247 101.165 327.538 113.794 327.538 127.949C327.538 132.022 326.81 135.996 325.376 139.761C320.854 151.63 324.306 164.841 333.966 172.635C344.263 180.943 351.929 191.776 356.295 204.111C338.677 217.72 327.303 239.003 327.303 262.898V287.564C318.84 292.949 309.382 296.466 299.534 297.884C293.367 285.522 282.914 275.554 269.686 270.04C269.92 265.659 266.881 261.499 262.186 261.499H246.316C243.476 261.499 240.968 263.091 239.697 265.479H230.892V251.384C264.278 239.219 288.183 207.157 288.183 169.616V126.543C288.183 123.295 286.136 120.431 283.047 119.425C269.643 114.91 260.354 100.003 256.256 87.332C253.274 78.106 240.369 76.507 235.345 84.842C222.599 105.987 193.028 114.216 170.465 117.395C144.969 120.987 122.345 119.09 122.123 119.072C117.799 118.684 113.968 122.209 113.968 126.543V169.616C113.968 207.158 137.873 239.219 171.259 251.384V265.479H162.454C161.183 263.09 158.675 261.499 155.835 261.499H139.966C135.329 261.499 132.26 265.679 132.466 270.039C119.242 275.551 108.791 285.512 102.624 297.869C68.7591 292.995 42.4511 263.751 41.8111 229.118C41.4041 207.074 51.017 186.486 68.186 172.635C77.847 164.841 81.2991 151.63 76.7761 139.762C75.3411 135.995 74.614 132.021 74.614 127.949C74.614 113.778 83.9001 101.145 97.7201 96.515C107.605 93.203 114.915 84.685 116.798 74.285C119.029 61.955 124.498 50.347 132.614 40.717C135.283 37.55 134.88 32.818 131.712 30.149C128.544 27.479 123.813 27.883 121.144 31.051C111.342 42.682 104.735 56.709 102.038 71.614C101.13 76.628 97.6501 80.72 92.9551 82.293C73.0131 88.974 59.614 107.322 59.614 127.95C59.614 133.853 60.672 139.624 62.759 145.103C64.962 150.885 63.358 157.258 58.767 160.962C37.9671 177.744 26.3201 202.687 26.8141 229.397C27.5721 270.391 57.9981 305.159 97.6501 312.262C96.8561 316.137 96.4401 320.14 96.4401 324.227V504.5C96.4401 508.642 99.7981 512 103.94 512C108.082 512 111.44 508.642 111.44 504.5V324.227C111.44 308.584 119.575 294.581 132.466 286.802V338.37C117.573 355.249 117.573 381.39 132.466 398.269V504.5C132.466 508.642 135.824 512 139.966 512C144.108 512 147.466 508.642 147.466 504.5V395.289C147.466 393.28 146.66 391.355 145.229 389.946C133.327 378.222 133.324 358.421 145.229 346.694C146.661 345.284 147.466 343.36 147.466 341.351V276.5H149.701C155.685 301.79 171.809 329.833 201.075 329.833C230.334 329.833 246.465 301.786 252.449 276.5H254.684V341.351C254.684 343.36 255.49 345.285 256.921 346.694C268.824 358.418 268.827 378.219 256.921 389.946C255.49 391.356 254.684 393.28 254.684 395.289V504.5C254.684 508.642 258.042 512 262.184 512C266.326 512 269.684 508.642 269.684 504.5V398.27C284.577 381.392 284.577 355.249 269.684 338.371V286.803C282.575 294.583 290.71 308.587 290.71 324.228V504.5C290.71 508.642 294.068 512 298.21 512C302.352 512 305.71 508.642 305.71 504.5V324.227C305.71 320.145 305.295 316.146 304.503 312.275C312.414 310.861 320.084 308.325 327.301 304.756V320.69C327.301 353.93 349.205 382.144 379.334 391.674V399.456H367.644C341.765 399.456 320.711 420.51 320.711 446.389V504.5C320.711 508.642 324.069 512 328.211 512C332.353 512 335.711 508.642 335.711 504.5V468.5H350.07V504.5C350.07 508.642 353.428 512 357.57 512C361.712 512 365.07 508.642 365.07 504.5V461C365.07 456.858 361.712 453.5 357.57 453.5H335.711V446.389C335.711 428.781 350.036 414.456 367.644 414.456H381.618C390.009 432.052 415.886 432.096 424.292 414.456H438.265C455.873 414.456 470.199 428.781 470.199 446.39V453.5H448.34C444.198 453.5 440.84 456.858 440.84 461V504.5C440.84 508.642 444.198 512 448.34 512C452.482 512 455.84 508.642 455.84 504.5V468.5H470.2V504.5C470.2 508.642 473.558 512 477.7 512C481.842 512 485.2 508.642 485.2 504.5V446.39C485.2 420.51 464.146 399.456 438.266 399.456V399.456ZM128.969 169.617V134.477C151.939 135.3 216.586 134.194 244.309 98.262C252.553 118.093 265.874 127.494 273.183 131.366V169.616C273.183 209.313 240.887 241.609 201.19 241.609H200.961C161.265 241.609 128.969 209.313 128.969 169.617ZM201.076 314.833C182.08 314.833 171.492 296.418 166.376 280.48H178.76C182.902 280.48 186.26 277.122 186.26 272.98V255.36C196.036 257.031 206.116 257.031 215.892 255.36V272.98C215.892 277.122 219.25 280.48 223.392 280.48H235.794C231.356 294.38 221.377 314.833 201.076 314.833V314.833ZM342.302 320.69V310.282C353.783 307.025 362.236 296.494 362.323 284.004C362.719 276.613 368.365 271.03 375.51 270.993C391.14 270.911 428.797 270.981 428.797 270.981C436.363 270.994 442.068 277.15 442.068 284.534C442.068 296.706 450.229 307 461.363 310.253V320.69C461.363 353.462 434.701 380.125 401.928 380.125H401.735C368.964 380.125 342.302 353.462 342.302 320.69V320.69ZM402.932 412.937C398.191 412.937 394.335 409.081 394.335 404.34V394.755C400.064 395.323 405.867 395.221 411.576 394.479V404.34C411.576 409.081 407.719 412.937 402.932 412.937Z" fill="#2A47B6"></path> <path d="M422.665 348.137C425.598 345.212 425.604 340.463 422.68 337.53C419.755 334.597 415.007 334.59 412.073 337.515C406.427 343.146 397.24 343.146 391.592 337.515C388.658 334.591 383.91 334.597 380.985 337.53C378.06 340.463 378.067 345.212 381 348.137C386.744 353.864 394.288 356.727 401.832 356.727C409.377 356.727 416.921 353.864 422.665 348.137V348.137Z" fill="#2A47B6"></path> </g> <defs> <clipPath id="clip0"> <rect width="512" height="512" fill="white"></rect> </clipPath> </defs> </svg>
